assets/azureftp/original.svg

<svg height="18" viewBox="0 0 18 18" width="18" xmlns="http://www.w3.org/2000/svg" xmlns:xlink="http://www.w3.org/1999/xlink"><linearGradient id="a" gradientUnits="userSpaceOnUse" x1="9" x2="9" y1="15.432" y2="5.977"><stop offset="0" stop-color="#32bedd"/><stop offset=".175" stop-color="#32caea"/><stop offset=".41" stop-color="#32d2f2"/><stop offset=".775" stop-color="#32d4f5"/></linearGradient><path d="m1 5.977h16v8.923a.535.535 0 0 1 -.535.535h-14.93a.535.535 0 0 1 -.535-.535z" fill="url(#a)"/><path d="m1.539 2.568h14.924a.535.535 0 0 1 .537.532v2.877h-16v-2.877a.535.535 0 0 1 .539-.532" fill="#0078d4"/><g fill="#f2f2f2"><rect height="1.35" rx=".263" width="11.499" x="3.252" y="3.58"/><path d="m6.611 13.469 2.055-5.546a.27.27 0 0 0 -.253-.363h-1.277a.27.27 0 0 0 -.252.176l-2.055 5.546a.27.27 0 0 0 .252.362h1.277a.27.27 0 0 0 .253-.175m4.505 0 2.055-5.546a.27.27 0 0 0 -.252-.363h-1.277a.27.27 0 0 0 -.253.176l-2.055 5.546a.27.27 0 0 0 .253.362h1.277a.27.27 0 0 0 .252-.175"/></g></svg>

<svg xmlns="http://www.w3.org/2000/svg" width="18" height="18" viewBox="0 0 18 18"><defs><linearGradient id="f9735c41-4373-4adb-b2b2-792fb469daad" x1="9" x2="9" y1="15.432" y2="5.977" gradientUnits="userSpaceOnUse"><stop offset="0" stop-color="#32bedd"/><stop offset=".175" stop-color="#32caea"/><stop offset=".41" stop-color="#32d2f2"/><stop offset=".775" stop-color="#32d4f5"/></linearGradient></defs><title>MsPortalFx.base.images-67</title><g id="e570f1c2-02c9-41ea-b129-22ed8e502359"><path fill="url(#f9735c41-4373-4adb-b2b2-792fb469daad)" d="M1 5.977h16V14.9a.535.535 0 0 1-.535.535H1.535A.535.535 0 0 1 1 14.9z"/><path fill="#0078d4" d="M1.539 2.568h14.924A.535.535 0 0 1 17 3.1v2.877H1V3.1a.535.535 0 0 1 .539-.532"/><rect width="11.499" height="1.35" x="3.252" y="3.58" fill="#f2f2f2" rx=".263"/><g fill="#f2f2f2"><path d="m6.611 13.469 2.055-5.546a.27.27 0 0 0-.253-.363H7.136a.27.27 0 0 0-.252.176l-2.055 5.546a.27.27 0 0 0 .252.362h1.277a.27.27 0 0 0 .253-.175M11.116 13.469l2.055-5.546a.27.27 0 0 0-.252-.363h-1.277a.27.27 0 0 0-.253.176l-2.055 5.546a.27.27 0 0 0 .253.362h1.277a.27.27 0 0 0 .252-.175"/></g></g></svg>
